src/components/common/icons/home.svg

<svg height="57" viewBox="0 0 54 57" width="54" xmlns="http://www.w3.org/2000/svg"><g fill="#010202" fill-rule="evenodd" transform="translate(0 -1)"><path d="m47.1078235 37.7164333 3.8613236 3.8457223 2.8373529-2.8275-26.7639706-26.6542223-26.76235293 26.6558334 2.83735294 2.8258889 3.85808824-3.8457223v19.8005556h40.13220585zm-24.0770588 15.8033889h8.0251471v-13.2932778h-8.0251471zm12.0385294 0v-17.2888333h-16.0519117v17.2888333h-8.0267648v-19.8005555l16.0519118-15.9870556 16.0519118 15.9870556v19.8005555z"/><path d="m43.7635 22.8953389h4.0117647c0-3.4896667-1.8085294-5.2892778-3.2627941-6.7376667-1.2585294-1.2518333-2.09-2.0799444-2.09-3.915 0-1.8382778.8298529-2.66477776 2.0883823-3.91661109 1.4558824-1.44677778 3.2644118-3.24961111 3.2644118-6.7425h-4.0117647c0 1.83666667-.8314706 2.66477778-2.0883824 3.915-1.4558823 1.45-3.267647 3.25122222-3.267647 6.74411109 0 3.4945 1.8133823 5.2957222 3.267647 6.7425 1.2585295 1.2518334 2.0883824 2.0767222 2.0883824 3.9101667"/></g></svg>

<?xml version="1.0" encoding="UTF-8"?>
<svg width="54px" height="57px" viewBox="0 0 54 57" version="1.1" xmlns="http://www.w3.org/2000/svg" xmlns:xlink="http://www.w3.org/1999/xlink">
    <!-- Generator: Sketch 52.5 (67469) - http://www.bohemiancoding.com/sketch -->
    <title>Icons/.home</title>
    <desc>Created with Sketch.</desc>
    <g id="Vapaaehtoisalusta-Layouts" stroke="none" stroke-width="1" fill="none" fill-rule="evenodd">
        <g id="HKI-Ikonit" transform="translate(-930.000000, -654.000000)" fill="#010202">
            <g id="Icons/.home" transform="translate(930.000000, 653.000000)">
                <path d="M47.1078235,37.7164333 L50.9691471,41.5621556 L53.8065,38.7346556 L27.0425294,12.0804333 L0.280176471,38.7362667 L3.11752941,41.5621556 L6.97561765,37.7164333 L6.97561765,57.5169889 L47.1078235,57.5169889 L47.1078235,37.7164333 Z M23.0307647,53.5198222 L31.0559118,53.5198222 L31.0559118,40.2265444 L23.0307647,40.2265444 L23.0307647,53.5198222 Z M35.0692941,53.5198222 L35.0692941,36.2309889 L19.0173824,36.2309889 L19.0173824,53.5198222 L10.9906176,53.5198222 L10.9906176,33.7192667 L27.0425294,17.7322111 L43.0944412,33.7192667 L43.0944412,53.5198222 L35.0692941,53.5198222 Z" id="Fill-33"></path>
                <path d="M43.7635,22.8953389 L47.7752647,22.8953389 C47.7752647,19.4056722 45.9667353,17.6060611 44.5124706,16.1576722 C43.2539412,14.9058389 42.4224706,14.0777278 42.4224706,12.2426722 C42.4224706,10.4043944 43.2523235,9.57789444 44.5108529,8.32606111 C45.9667353,6.87928333 47.7752647,5.07645 47.7752647,1.58356111 L43.7635,1.58356111 C43.7635,3.42022778 42.9320294,4.24833889 41.6751176,5.49856111 C40.2192353,6.94856111 38.4074706,8.74978333 38.4074706,12.2426722 C38.4074706,15.7371722 40.2208529,17.5383944 41.6751176,18.9851722 C42.9336471,20.2370056 43.7635,21.0618944 43.7635,22.8953389" id="Fill-34"></path>
            </g>
        </g>
    </g>
</svg>
